X:721
T:Hag with the Money, The
M:6/8
L:1/8
R:jig
B:O'Neill's 721
N:"collected by McFadden"
Z:Transcribed by mvhplank
K:D
Add AcA|GEF G2 E|Ddd (A/2B/2c)A|GEF GED|\
A~dB c2 A|GEF G2 E|DFA {d/2}cBA|BGE GED:|
||A~dc d2 e|fec d2 c|A~dc d2 e|fdf ecA|\
A~dc d2 e|(f/2g/2a)f ecA|AGE cBA|BGE GED:|


